X:1
T:The gurgling of the churn
M:6/8
L:1/8
R:Jig
K:D
G2B E2B|{c}BAG F2G|D2F AFD|G2B E2B|{c}BAG d2B|AFD E3:|
B2e e2f|gfe f2d|d2f afd|B2e e2f|gfe d2B|AFD E3:|

